X:7
T:Cuckoo
M:C|
L:1/8
K:G Major
dc|BGBd cAFc|d^cde dBGF|EGcB AGFG|(3ABA (3GFE D2B,D|!
BGDd cAFc|d^cde dBGF|EGcB AGFG|ADFA GB:|!
dg|bgfg dgBg|bgfg dgBg|=c'a^ga eaca|=c'a^ga eaca|!
bgfg dgBg|bgfg dgBg|(3aba (3gag (3fgf (3efe|defa g2:|!
